X: 7414
T: Clogger's Quilt, The
R: reel
M: 4/4
K: Gmajor
(3eed cd BG (3GFG|EAAG A2 GE|DGBG dGBG|(3ABA GA BGGB|
d2 dc dedB|AGAB A2 GE|DGBG dGBG|A2 GA BG G2:|:Bd (3dcd edBd|
eaab agef|gage dGBd|gfga bg g2|(3gag (3ege (3ded Bd|
eaab agef|gage dGBd|gfga bg g2:|

